src/distro-icons/zorin.svg

<svg height="512" width="512" fill="#15a6f0" xmlns="http://www.w3.org/2000/svg">
<path d="m85.333 404.139 42.567 73.728h256.198l42.569-73.728zM512 255.999l-42.938 74.412H196.608l272.454-148.822Zm-512 .003 42.938-74.412h272.454L42.938 330.41Zm85.333-148.14L127.9 34.132h256.198l42.569 73.728z" style="stroke-width:.682667"/>
<path style="fill:#fff;stroke:none;stroke-width:1.01354px;stroke-linecap:butt;stroke-linejoin:miter;stroke-opacity:1" d="M85.333 107.861 42.938 181.59h272.454L42.938 330.41l42.395 73.729h341.334l42.395-73.728H196.608l272.454-148.822-42.395-73.728z"/>
</svg>

<svg width="512" height="512" viewBox="0 0 512 512" fill="none" xmlns="http://www.w3.org/2000/svg">
<path d="M85.333 404.139L127.9 477.867H384.098L426.667 404.139H85.333ZM512 255.999L469.062 330.411H196.608L469.062 181.589L512 255.999ZM0 256.002L42.938 181.59H315.392L42.938 330.41L0 256.002ZM85.333 107.862L127.9 34.132H384.098L426.667 107.86L85.333 107.862Z" fill="#15A6F0"/>
<path d="M85.3335 107.861L42.9385 181.59H315.392L42.9385 330.41L85.3335 404.139H426.667L469.062 330.411H196.608L469.062 181.589L426.667 107.861H85.3335Z" fill="white"/>
</svg>
